icons/midnadark/apps/48/strigi.svg

<?xml version="1.0" encoding="UTF-8" standalone="no"?>
<!-- Created with Inkscape (http://www.inkscape.org/) -->

<svg
   xmlns:dc="http://purl.org/dc/elements/1.1/"
   xmlns:cc="http://creativecommons.org/ns#"
   xmlns:rdf="http://www.w3.org/1999/02/22-rdf-syntax-ns#"
   xmlns:svg="http://www.w3.org/2000/svg"
   xmlns="http://www.w3.org/2000/svg"
   xmlns:xlink="http://www.w3.org/1999/xlink"
   xmlns:sodipodi="http://sodipodi.sourceforge.net/DTD/sodipodi-0.dtd"
   xmlns:inkscape="http://www.inkscape.org/namespaces/inkscape"
   width="48"
   height="48"
   id="svg5453"
   version="1.1"
   inkscape:version="0.91 r13725"
   sodipodi:docname="strigi.svg">
  <defs
     id="defs5455">
    <linearGradient
       gradientTransform="translate(-389.94674,-525.67337)"
       inkscape:collect="always"
       xlink:href="#linearGradient4271"
       id="linearGradient4181-4"
       gradientUnits="userSpaceOnUse"
       x1="400.5119"
       y1="546.07446"
       x2="400.5119"
       y2="518.33484" />
    <linearGradient
       inkscape:collect="always"
       id="linearGradient4271">
      <stop
         style="stop-color:#e3e3e3;stop-opacity:1"
         offset="0"
         id="stop4273" />
      <stop
         style="stop-color:#fffcff;stop-opacity:1"
         offset="1"
         id="stop4275" />
    </linearGradient>
  </defs>
  <sodipodi:namedview
     id="base"
     pagecolor="#ffffff"
     bordercolor="#666666"
     borderopacity="1.0"
     inkscape:pageopacity="0"
     inkscape:pageshadow="2"
     inkscape:zoom="4"
     inkscape:cx="-80.941894"
     inkscape:cy="15.968792"
     inkscape:document-units="px"
     inkscape:current-layer="g4182"
     showgrid="true"
     fit-margin-top="0"
     fit-margin-left="0"
     fit-margin-right="0"
     fit-margin-bottom="0"
     inkscape:window-width="1366"
     inkscape:window-height="634"
     inkscape:window-x="0"
     inkscape:window-y="36"
     inkscape:window-maximized="1"
     inkscape:showpageshadow="false"
     borderlayer="true"
     showguides="false">
    <inkscape:grid
       type="xygrid"
       id="grid4063" />
    <sodipodi:guide
       position="1.1650391e-05,32.000026"
       orientation="32,0"
       id="guide4157" />
    <sodipodi:guide
       position="1.1650391e-05,2.6367188e-05"
       orientation="0,32"
       id="guide4159" />
    <sodipodi:guide
       position="32.000012,2.6367188e-05"
       orientation="-32,0"
       id="guide4161" />
    <sodipodi:guide
       position="32.000012,32.000026"
       orientation="0,-32"
       id="guide4163" />
    <sodipodi:guide
       position="2.0000117,30.000026"
       orientation="28,0"
       id="guide4167" />
    <sodipodi:guide
       position="2.0000117,2.0000264"
       orientation="0,28"
       id="guide4169" />
    <sodipodi:guide
       position="30.000012,2.0000264"
       orientation="-28,0"
       id="guide4171" />
    <sodipodi:guide
       position="30.000012,30.000026"
       orientation="0,-28"
       id="guide4173" />
    <sodipodi:guide
       position="2.0000117,30.000026"
       orientation="28,0"
       id="guide4181" />
    <sodipodi:guide
       position="2.0000117,2.0000264"
       orientation="0,14"
       id="guide4183" />
    <sodipodi:guide
       position="16.000012,2.0000264"
       orientation="-28,0"
       id="guide4185" />
    <sodipodi:guide
       position="16.000012,30.000026"
       orientation="0,-14"
       id="guide4187" />
    <sodipodi:guide
       position="9.0000117,23.000026"
       orientation="14,0"
       id="guide4193" />
    <sodipodi:guide
       position="9.0000117,9.0000264"
       orientation="0,14.000031"
       id="guide4195" />
    <sodipodi:guide
       position="23.000042,9.0000264"
       orientation="-14,0"
       id="guide4197" />
    <sodipodi:guide
       position="23.000042,23.000026"
       orientation="0,-14.000031"
       id="guide4199" />
  </sodipodi:namedview>
  <metadata
     id="metadata5458">
    <rdf:RDF>
      <cc:Work
         rdf:about="">
        <dc:format>image/svg+xml</dc:format>
        <dc:type
           rdf:resource="http://purl.org/dc/dcmitype/StillImage" />
        <dc:title></dc:title>
      </cc:Work>
    </rdf:RDF>
  </metadata>
  <g
     inkscape:label="Capa 1"
     inkscape:groupmode="layer"
     id="layer1"
     transform="translate(-384.57143,-499.798)">
    <g
       style="display:inline;enable-background:new"
       id="g4238"
       transform="translate(225.81911,462.44565)">
      <g
         style="display:inline"
         id="layer1-8"
         transform="matrix(0.22655187,0,0,0.22655187,106.94841,54.31088)">
        <g
           style="display:none"
           id="layer6" />
        <g
           id="g4027" />
        <g
           id="g4061" />
        <g
           id="g3751" />
        <g
           id="g3782" />
        <g
           id="g3725" />
        <g
           id="g4370"
           transform="matrix(4.4140002,0,0,4.4140002,59.275211,39.357303)">
          <g
             id="g4182"
             transform="matrix(1.7142857,0,0,1.7142857,-30.839285,-12.375017)">
            <g
               id="g4183"
               transform="translate(43.750032,3.2986368e-5)">
              <circle
                 style="opacity:1;fill:url(#linearGradient4181-4);fill-opacity:1;stroke:none;stroke-width:1.19965255;stroke-miterlimit:4;stroke-dasharray:none;stroke-dashoffset:0;stroke-opacity:1"
                 id="path3377-4"
                 cx="10.624969"
                 cy="6.1249766"
                 r="13.999969" />
              <path
                 id="path4308"
                 d="m 4.5931391,12.235632 c 1.445213,1.445041 3.259795,1.973647 3.83757,1.3957 l 2.3259359,-2.325936 c 0.352807,-0.352807 0.660413,-1.533717 0.51929,-2.7289466 L 18.315678,1.5365335 C 18.73318,1.1190314 18.394866,0.10374205 17.559861,-0.73108962 16.724856,-1.5662666 15.709567,-1.9044092 15.292065,-1.4872518 L 8.2523221,5.5524913 c -1.195575,-0.1411229 -2.37614,0.1668281 -2.728947,0.5194625 l -2.325935,2.3259361 c -0.577948,0.5781195 -0.04951,2.3925281 1.395699,3.8377421 z M 12.3347,5.2003744 c 0.321407,0.3214079 0.216687,0.9461084 -0.232559,1.3956997 -0.449419,0.4492466 -1.074637,0.5539672 -1.3957,0.2325592 C 10.385723,6.5077434 10.489754,5.882525 10.939,5.4331063 11.388592,4.9836877 12.013982,4.8794845 12.3347,5.2003744 Z M 6.5117511,10.316847 c 1.119665,1.119492 1.400703,2.596622 1.301331,2.696512 -0.09972,0.09972 -1.518708,-0.239632 -2.638718,-1.359125 -1.11932,-1.119838 -1.455392,-2.5419323 -1.358952,-2.6385446 0.09644,-0.096439 1.577019,0.1813199 2.696339,1.3011576 z"
                 style="fill:#000000;fill-opacity:0.70609286"
                 inkscape:connector-curvature="0" />
            </g>
          </g>
        </g>
      </g>
    </g>
  </g>
</svg>

<svg xmlns="http://www.w3.org/2000/svg" viewBox="0 0 48 48"><defs><linearGradient id="0" gradientUnits="userSpaceOnUse" y1="20.401" x2="0" y2="-7.339"><stop stop-color="#e3e3e3"/><stop offset="1" stop-color="#fffcff"/></linearGradient></defs><g transform="matrix(1.71427 0 0 1.71427 5.789 13.512)" enable-background="new"><circle cx="10.625" cy="6.125" r="14" fill="url(#0)"/><path d="m4.593 12.236c1.445 1.445 3.26 1.974 3.838 1.396l2.326-2.326c.353-.353.66-1.534.519-2.729l7.04-7.04c.418-.418.079-1.433-.756-2.268-.835-.835-1.85-1.173-2.268-.756l-7.04 7.04c-1.196-.141-2.376.167-2.729.519l-2.326 2.326c-.578.578-.05 2.393 1.396 3.838m7.742-7.04c.321.321.217.946-.233 1.396-.449.449-1.075.554-1.396.233-.321-.321-.217-.946.233-1.396.45-.449 1.075-.554 1.396-.233m-5.823 5.116c1.12 1.119 1.401 2.597 1.301 2.697-.1.1-1.519-.24-2.639-1.359-1.119-1.12-1.455-2.542-1.359-2.639.096-.096 1.577.181 2.696 1.301z" fill-opacity=".706"/></g></svg>
